!!!!SEGMENT: pl-kk--i-533--004_studzinski-piotr--nr-4-benedictus-es-domine.krn
!!!cenid: 18xx:4473
!!!COM: Studziński, Piotr
!!!COM-rismID: pe50044409
!!!CDT: 1825/10/16-1869/04/20
!!!CNT: Polish
!!!OTL: Nr 4. Benedictus es Domine
!!!PDT:
!!!AGN: Sacred
!!!YEC: Copyright 2022 Narodowy Instytut Fryderyka Chopina (https://polishscores.org)
!!!YEM: License CC-BY-4.0 (https://creativecommons.org/licenses/by/4.0)
!!!SMS-siglum: PL-Kk
!!!SMS-shelfmark: I.533
!!!SMS-variant: Soprano PL-Kk KK.I.533:2; Alto PL-Kk KK.I.533:6; Tenor PL-Kk KK.I.533:10; Basſo PL-Kk KK.I.533:14.
!!!SMS-altvar: Partytura PL-Kk KK.I.533:20v-20r.
!!!SMS-shelfwork: 004 W
!!!NIFC-rismSourceID: 1001210519
!!!NIFC-rismChildID: 1001210537
!!!NIFC-islandoraID: pl-kk:16805
!!!URL-pdf-islandora: https://repozytorium.nifc.pl/islandora/object/pl-kk%3A16805/datastream/PDF/view
!!!URL-scan: https://polish.musicsources.pl/pl/lokalizacje/galeria/rekopisy/7160/1 @EN{Scan on Polish Music Sources Website} @PL{Skany w portalu Dziedzictwo Muzyki Polskiej w otwartym dostępie}
!!!IIIF:
!!!ONB-nifc:
!!!OMD: Maestoso
!!!AIN: 1 alto 1 bass 1 soprn 1 tenor
!!!key: E-
**kern	**text	**dynam	**kern	**text	**dynam	**kern	**text	**dynam	**kern	**text	**dynam
*part4	*part4	*part4	*part3	*part3	*part3	*part2	*part2	*part2	*part1	*part1	*part1
*staff4	*staff4	*	*staff3	*staff3	*	*staff2	*staff2	*	*staff1	*staff1	*
*I"Basſo	*	*	*I"Tenor	*	*	*I"Alto	*	*	*I"Soprano	*	*
*I'B	*	*	*I'T	*	*	*I'A	*	*	*I'S	*	*
*Ibass	*	*	*Itenor	*	*	*Ialto	*	*	*Isoprn	*	*
*ICvox	*	*	*ICvox	*	*	*ICvox	*	*	*ICvox	*	*
*clefF4	*	*	*clefC4	*	*	*clefC3	*	*	*clefG2	*	*
*k[b-e-a-]	*	*	*k[b-e-a-]	*	*	*k[b-e-a-]	*	*	*k[b-e-a-]	*	*
*E-:	*	*	*E-:	*	*	*E-:	*	*	*E-:	*	*
*M4/4	*	*	*M4/4	*	*	*M4/4	*	*	*M4/4	*	*
*met(c)	*	*	*met(c)	*	*	*met(c)	*	*	*met(c)	*	*
=1	=1	=1	=1	=1	=1	=1	=1	=1	=1	=1	=1
!!LO:TX:t=P:problem=all\right
!	!	!LO:DY:b:rj	!	!	!LO:DY:b:rj	!LO:TX:a:t=Maestoso	!	!LO:DY:b:rj	!LO:TX:a:t=Maestoso	!	!LO:DY:b:rj
4.E-\	Be-	p	4.B-\	Be-	p	4.e-\	Be-	p	4.g/	Be-	p
8E-\	-ne-	.	8B-\	-ne-	.	8e-\	-ne-	.	8g/	-ne-	.
4E-\	-di-	.	4c\	-di-	.	4e-\	-di-	.	4a-/	-di-	.
4E-\	-ctus	.	4B-\	-ctus	.	4e-\	-ctus	.	4g/	-ctus	.
=2	=2	=2	=2	=2	=2	=2	=2	=2	=2	=2	=2
*	*	*	*2\right	*	*	*2\right	*	*	*	*	*
2AA-/	es	.	2A-\	es	.	2c\	es	.	(2g/	es	.
2r	.	.	2r	.	.	2r	.	.	4f/	.	.
.	.	.	.	.	.	.	.	.	4e-/)	.	.
=3	=3	=3	=3	=3	=3	=3	=3	=3	=3	=3	=3
!	!	!LO:HP:a	!	!	!LO:HP:a	!	!	!LO:HP:a	!	!	!LO:HP:a
2BB-/	Do-	<	2B-\	Do-	<	(4B-\	Do-	<	(4d/	Do-	<
.	.	.	.	.	.	4d\)	.	.	4f/)	.	.
4BB-/	-mi-	.	4B-\	-mi-	.	4e-\	-mi-	.	4g/	-mi-	.
!	!	!	!	!	!	!	!	!	!	!	!LO:DY:a
4BB-/	-ne	[	4B-\	-ne	[	4f\	-ne	[[	4a-/	-ne	[ sfz
=4	=4	=4	=4	=4	=4	=4	=4	=4	=4	=4	=4
*2\right	*	*	*	*	*	*	*	*	*	*	*
!	!	!LO:HP:a	!	!	!LO:HP:a	!	!	!LO:HP:a	!	!	!LO:HP:a
2E-\	De-	>	(4.c\	De-	>	(4f#X\	De-	>	(4.an/	De-	>
.	.	.	.	.	.	8g\)	.	]	.	.	.
.	.	.	8B-\)	.	]	4e-\	-us	.	8b-/)	.	.
4E-\	-us	]	4B-\	-us	.	.	.	.	4g/	-us	]
.	.	.	.	.	.	8r	.	.	.	.	.
4r	.	.	4r	.	.	4r	.	.	4r	.	.
=5	=5	=5	=5	=5	=5	=5	=5	=5	=5	=5	=5
!	!	!LO:DY:b:rj	!	!	!LO:DY:b:rj	!	!	!LO:DY:b:rj	!	!	!LO:DY:b:rj
2E-\	Do-	p	2B-\	Do-	p	2e-\	Do-	p	2g/	Do-	p
4E-\	-mi-	.	4c\	-mi-	.	4e-\	-mi-	.	4a-/	-mi-	.
4E-\	-ne	.	4B-\	-ne	.	4e-\	-ne	.	4g/	-ne	.
!LO:LB:g=original	!	!	!LO:LB:g=original	!	!	!LO:LB:g=original	!	!	!LO:LB:g=original	!	!
=6	=6	=6	=6	=6	=6	=6	=6	=6	=6	=6	=6
2AA-/	De-	.	2A-\	De-	.	2c\	De-	.	2g/	De-	.
4AA-/	-us	.	4A-\	-us	.	4c\	-us	.	4f/	-us	.
4AAn/	pa-	.	4F/	pa-	.	4c\	pa-	.	4e-/	pa-	.
=7	=7	=7	=7	=7	=7	=7	=7	=7	=7	=7	=7
!	!	!LO:HP:a	!	!	!LO:HP:b	!	!	!LO:HP:b	!	!	!LO:HP:a
4BB-/	-trum	<	4F/	-trum	<	4d\	-trum	<	(8d/L	-trum	<
.	.	.	.	.	.	.	.	.	8f/J)	.	.
4D\	no-	[	4B-\	no-	[	4f\	no-	[	8b-\L	no-	.
.	.	.	.	.	.	.	.	.	8dd\J	.	[
!	!	!LO:DY:b:rj	!	!	!LO:DY:b:rj	!	!	!LO:DY:b:rj	!	!	!LO:DY:b:rj
2F\	-stro-	f	2An\	-stro-	f	2e-\	-stro-	f	(4dd\	-stro-	f
.	.	.	.	.	.	.	.	.	4cc\)	.	.
=8	=8	=8	=8	=8	=8	=8	=8	=8	=8	=8	=8
4B-\	-rum	.	4.B-\	-rum	.	4d\	-rum	.	4b-\	-rum	.
4r	.	.	.	.	.	4r	.	.	4r	.	.
!	!	!	!	!	!LO:DY:b:rj	!	!	!	!	!	!
.	.	.	8B-\	Be-	p	.	.	.	.	.	.
.	.	.	16qqd/	.	.	.	.	.	.	.	.
2r	.	.	4c\	.	.	2r	.	.	2r	.	.
.	.	.	4B-\	-ne-	.	.	.	.	.	.	.
=9	=9	=9	=9	=9	=9	=9	=9	=9	=9	=9	=9
*	*	*	*	*	*	*	*	*	*2\right	*	*
!	!	!LO:DY:b:rj	!	!	!	!	!	!LO:DY:b:rj	!	!	!LO:DY:b:rj
2D\	Do-	p	1A-	-dic-	.	2f\	Do-	p	2b-\	Do-	p
4BB-/	-mi-	.	.	.	.	4d\	-mi-	.	4cc\	-mi-	.
4BB-/	-ne	.	.	.	.	4d\	-ne	.	4b-\	-ne	.
=10	=10	=10	=10	=10	=10	=10	=10	=10	=10	=10	=10
4E-\	De-	.	4G\	-ctus	.	4e-\	De-	.	4b-\	De-	.
4E-\	-us	.	4B-\	Be-	.	4e-\	-us	.	4g\	-us	.
.	.	.	8qqc/	.	.	.	.	.	.	.	.
2r	.	.	4c\	.	.	2r	.	.	2r	.	.
.	.	.	4B-\	-ne-	.	.	.	.	.	.	.
=11	=11	=11	=11	=11	=11	=11	=11	=11	=11	=11	=11
2En\	Do-	.	1B-	-dic-	.	2g\	Do-	.	2cc\	Do-	.
4C\	-mi-	.	.	.	.	4en\	-mi-	.	4dd-X\	-mi-	.
4C\	-ne	.	.	.	.	4e\	-ne	.	4cc\	-ne	.
=12	=12	=12	=12	=12	=12	=12	=12	=12	=12	=12	=12
4F\	De-	.	(4A-\	-ctus	.	4f\	De-	.	4cc\	De-	.
4F\	-us	.	4c\)	.	.	4f\	-us	.	4a-\	-us	.
2r	.	.	4c\	pa-	.	2r	.	.	2r	.	.
.	.	.	4c-X\	.	.	.	.	.	.	.	.
!LO:LB:g=original	!	!	!LO:LB:g=original	!	!	!LO:LB:g=original	!	!	!LO:LB:g=original	!	!
=13	=13	=13	=13	=13	=13	=13	=13	=13	=13	=13	=13
!	!	!LO:DY:b:rj	!	!	!LO:DY:b:rj	!	!	!LO:DY:b:rj	!	!	!LO:DY:b:rj
1D	De-	f	2B-\	-trum	f	(2a-\	De-	f	(4.ff\	Do-	f
.	.	.	.	.	.	.	.	.	8ee-\)	.	.
.	.	.	2B-\	De-	.	2f\)	.	.	8dd\L	-mi-	.
.	.	.	.	.	.	.	.	.	8cc\J	.	.
.	.	.	.	.	.	.	.	.	8b-\L	-ne	.
.	.	.	.	.	.	.	.	.	8a-\J	.	.
=14	=14	=14	=14	=14	=14	=14	=14	=14	=14	=14	=14
4E-\	-us	.	4B-\	-us	.	4e-\	-us	.	4g/	De-	.
4En\	pa-	.	4G\	pa-	.	4d-X\	pa-	.	4b-/	-us	.
4F\	-trum	.	4A-/	-trum	.	4c\	-trum	.	(8b-/L	pa-	.
.	.	.	.	.	.	.	.	.	8a-/J)	.	.
4AA-/	no-	.	4F/	no-	.	4c\	no-	.	(8c/L	-trum	.
.	.	.	.	.	.	.	.	.	8f/J)	.	.
=15	=15	=15	=15	=15	=15	=15	=15	=15	=15	=15	=15
!	!	!	!	!	!	!	!	!LO:DY:b:rj	!	!	!
1BB-	-stro-	.	(2G/	-stro-	.	(2B-/	-stro-	p	(8f/L	no-	.
.	.	.	.	.	.	.	.	.	8e-/	.	.
.	.	.	.	.	.	.	.	.	8d/	.	.
.	.	.	.	.	.	.	.	.	8e-/J)	.	.
.	.	.	2A-/)	.	.	2d\)	.	.	(4.g/	-stro-	.
.	.	.	.	.	.	.	.	.	8f/)	.	.
=16	=16	=16	=16	=16	=16	=16	=16	=16	=16	=16	=16
4E-\	-rum	.	4G/	-rum	.	4e-\	-rum	.	4e-/	-rum	.
2E-\	Et	.	(4G/	Et	.	(4e-\	Et	.	2ee-\	Et	.
.	.	.	4A-/)	.	.	4f\)	.	.	.	.	.
4E-\	lau-	.	4B-\	lau-	.	4g\	lau-	.	4ee-\	lau-	.
=17	=17	=17	=17	=17	=17	=17	=17	=17	=17	=17	=17
2E-\	-da-	.	4.c\	-da-	.	8.a-\	-da-	.	4.ee-\	-da-	.
.	.	.	.	.	.	16g\	-bi-	.	.	.	.
.	.	.	.	.	.	4g\	-lis	.	.	.	.
.	.	.	8B-\	-bi-	.	.	.	.	8e-/	-bi-	.
4E-\	-bi-	.	4B-\	-lis	.	2r	.	.	4e-/	-lis	.
4E-\	-lis	.	4r	.	.	.	.	.	4r	.	.
=18	=18	=18	=18	=18	=18	=18	=18	=18	=18	=18	=18
2.E-\	glo-	.	4r	.	.	4r	.	.	2r	.	.
.	.	.	(4G\	et	.	(4e-\	glo-	.	.	.	.
.	.	.	4A-\)	.	.	4f\)	.	.	4ee-\	glo-	.
4E-\	-ri-	.	4B-\	lau-	.	4g\	-ri-	.	4ee-\	-ri-	.
!	!	!	!	!	!	!LO:LB:g=original	!	!	!LO:LB:g=original	!	!
=19	=19	=19	=19	=19	=19	=19	=19	=19	=19	=19	=19
2.E-\	-o-	.	4.c\	-da-	.	(4.a-\	-o-	.	2ee-\	-o-	.
.	.	.	8B-\	-bi-	.	8g\)	.	.	.	.	.
.	.	.	4B-\	-lis	.	4g\	-sus	.	4e-/	-sus	.
4E-\	-sus	.	4r	.	.	4r	.	.	4r	.	.
!	!	!	!LO:LB:g=original	!	!	!	!	!	!	!	!
=20	=20	=20	=20	=20	=20	=20	=20	=20	=20	=20	=20
2.C/	glo-	.	4r	.	.	4r	.	.	2r	.	.
.	.	.	(4E-/	glo-	.	(4c\	glo-	.	.	.	.
.	.	.	4F/)	.	.	4dn\)	.	.	4cc\	glo-	.
4C/	-ri-	.	4G/	-ri-	.	4e-\	-ri-	.	4cc\	-ri-	.
!LO:LB:g=original	!	!	!	!	!	!	!	!	!	!	!
=21	=21	=21	=21	=21	=21	=21	=21	=21	=21	=21	=21
2.C/	-o-	.	(4.A-/	-o-	.	(4.f\	-o-	.	2cc\	-o-	.
.	.	.	8G/)	.	.	8e-\)	.	.	.	.	.
.	.	.	4G/	-sus	.	4e-\	-sus	.	4c/	-sus	.
4C/	-sus	.	4r	.	.	4r	.	.	4r	.	.
=22	=22	=22	=22	=22	=22	=22	=22	=22	=22	=22	=22
2.C/	glo-	.	4r	.	.	4r	.	.	2r	.	.
.	.	.	(4E-/	glo-	.	(4c\	glo-	.	.	.	.
.	.	.	4F/)	.	.	4d\)	.	.	4cc\	glo-	.
4C/	-ri-	.	4G/	-ri-	.	4e-\	-ri-	.	4cc\	-ri-	.
=23	=23	=23	=23	=23	=23	=23	=23	=23	=23	=23	=23
2C/	-o-	.	(4.A-/	-o-	.	(4.f\	-o-	.	2cc\	-o-	.
.	.	.	8G/)	.	.	8e-\)	.	.	.	.	.
4C/	-sus	.	4G/	-sus	.	4e-\	-sus	.	4cc\	-sus	.
4C/	in	.	4G/	in	.	4e-\	in	.	4cc\	in	.
=24	=24	=24	=24	=24	=24	=24	=24	=24	=24	=24	=24
!	!	!LO:DY:b:rj	!	!	!	!	!	!LO:DY:b:rj	!	!	!
(2AA-/	se-	f	(2F/	se-	.	(2c\	se-	f	2cc\	se-	.
4BB-/)	.	.	4A-\)	.	.	4d\)	.	.	(8b-\L	.	.
.	.	.	.	.	.	.	.	.	8a-\J)	.	.
4BB-/	-cu-	.	4A-\	-cu-	.	4d\	-cu-	.	8g/L	-cu-	.
.	.	.	.	.	.	.	.	.	8f/J	.	.
!	!	!	!	!	!	!LO:LB:g=original	!	!	!	!	!
=25	=25	=25	=25	=25	=25	=25	=25	=25	=25	=25	=25
(2C/	-la	.	2G/	-la	.	(2c\	-la	.	4e-/	-la	.
.	.	.	.	.	.	.	.	.	(16f/LL	.	.
.	.	.	.	.	.	.	.	.	16e-/	.	.
.	.	.	.	.	.	.	.	.	16d/	.	.
.	.	.	.	.	.	.	.	.	16e-/JJ)	.	.
4GG/)	.	.	4B-\	.	.	4e-\)	.	.	4ee-\	.	.
4GG/	in	.	4B-\	in	.	4e-\	in	.	(8b-\L	in	.
.	.	.	.	.	.	.	.	.	8g\J)	.	.
!	!	!	!LO:LB:g=original	!	!	!	!	!	!LO:LB:g=original	!	!
=26	=26	=26	=26	=26	=26	=26	=26	=26	=26	=26	=26
(2AA-/	se-	.	2F/	se-	.	(2c\	se-	.	2cc\	se-	.
4BB-/)	.	.	4A-\	.	.	4d\)	.	.	(8b-\L	.	.
.	.	.	.	.	.	.	.	.	8a-\J)	.	.
4BB-/	-cu-	.	4A-\	-cu-	.	4d\	-cu-	.	8g/L	-cu-	.
.	.	.	.	.	.	.	.	.	8f/J	.	.
=27	=27	=27	=27	=27	=27	=27	=27	=27	=27	=27	=27
4E-\	-la	.	4G/	-la	.	4e-\	-la	.	4e-/	-la	.
!	!	!LO:DY:b:rj	!	!	!	!	!	!	!	!	!
4E-\	et	p	4r	.	.	4r	.	.	4r	.	.
4E-\	be-	.	2r	.	.	2r	.	.	2r	.	.
4E-\	-ne-	.	.	.	.	.	.	.	.	.	.
!LO:LB:g=original	!	!	!	!	!	!	!	!	!	!	!
=28	=28	=28	=28	=28	=28	=28	=28	=28	=28	=28	=28
!	!	!	!	!	!LO:DY:b:rj	!	!	!LO:DY:b:rj	!	!	!LO:DY:b:rj
1E-	-dic-	.	2e-\	et	pp	2g\	et	pp	2b-\	et	pp
.	.	.	4e-\	Be-	.	4a-\	Be-	.	4cc-X\	Be-	.
.	.	.	4e-\	-ne-	.	4f\	-ne-	.	4a-\	-ne-	.
=29	=29	=29	=29	=29	=29	=29	=29	=29	=29	=29	=29
4E-\	-tus	.	2e-\	-di-	.	(4.e-\	-di-	.	(4.g/	-di-	.
4E-\	no-	.	.	.	.	.	.	.	.	.	.
.	.	.	.	.	.	8f\)	.	.	8a-/)	.	.
4E-\	-men	.	4e-\	-cta	.	4g\	-cta	.	4b-/	-cta	.
8E-\	glo-	.	4r	.	.	4r	.	.	4r	.	.
8E-\	-ri-	.	.	.	.	.	.	.	.	.	.
!	!	!	!	!	!	!	!	!	!LO:LB:g=original	!	!
=30	=30	=30	=30	=30	=30	=30	=30	=30	=30	=30	=30
1E-	-e	.	4e-\	no-	.	4.g\	no-	.	4.b-\	no-	.
.	.	.	4e-\	-men	.	.	.	.	.	.	.
.	.	.	.	.	.	8g\	-men	.	8b-\	-men	.
.	.	.	4e-\	glo-	.	8b-\L	glo-	.	(8dd-X\L	glo-	.
.	.	.	.	.	.	8a-\J	.	.	8cc-X\J)	.	.
.	.	.	8d-X\	-ri-	.	8e-\	-ri-	.	8b-/	-ri-	.
.	.	.	8c-X\	-e	.	8e-\	-e	.	8a-X/	-e	.
!	!	!	!	!	!	!LO:LB:g=original	!	!	!	!	!
=31	=31	=31	=31	=31	=31	=31	=31	=31	=31	=31	=31
2.E-\	tu-	.	(4.B-\	tu-	.	(4.e-\	tu-	.	(4.g/	tu-	.
.	.	.	8A-\)	.	.	8f\)	.	.	8a-/)	.	.
.	.	.	4G\	-e	.	4g\	-e	.	4b-/	-e	.
4D-X\	-e	.	4r	.	.	4r	.	.	4r	.	.
!	!	!	!LO:LB:g=original	!	!	!	!	!	!	!	!
=32	=32	=32	=32	=32	=32	=32	=32	=32	=32	=32	=32
2.C\	quod	.	2.A-\	quod	.	2.e-\	gvod	.	2.a-/	quod	.
4C\	est	.	4A-\	est	.	4en\	est	.	4cc\	est	.
=33	=33	=33	=33	=33	=33	=33	=33	=33	=33	=33	=33
2D-X\	san-	.	(4A-X\	san-	.	2f\	san-	.	2cc\	san-	.
.	.	.	4An\)	.	.	.	.	.	.	.	.
2D-\	-ctum	.	(4B-\	-ctum	.	2f\	-ctum	.	(4b-\	-ctum	.
.	.	.	4d-X\)	.	.	.	.	.	4a-\)	.	.
=34	=34	=34	=34	=34	=34	=34	=34	=34	=34	=34	=34
!	!	!	!	!	!LO:HP:b	!	!	!	!	!	!LO:HP:b
2E-\	et	.	2B-\	et	<	2e-\	lau-	.	(4g/	et	<
.	.	.	.	.	.	.	.	.	4b-/)	.	.
!	!	!LO:HP:a	!	!	!	!	!	!	!	!	!
4E-\	lau-	<	4B-\	lau-	.	2g\	-da-	.	4dd-X\	lau-	.
4E-\	-da-	[	4d-X\	-da-	[	.	.	.	4ff\	-da-	[
=35	=35	=35	=35	=35	=35	=35	=35	=35	=35	=35	=35
!	!	!LO:DY:b:rj	!	!	!LO:DY:b:rj	!	!	!	!	!	!LO:DY:b:rj
2A-\	-bi-	f	2d-X\	-bi-	f	2a-\	-vi-	.	2ff\	-bi-	f
4A-\	-le	.	4c\	-le	.	4a-\	-le	.	4ee-\	-le	.
4r	.	.	4r	.	.	4r	.	.	4r	.	.
!LO:LB:g=original	!	!	!	!	!	!	!	!	!	!	!
=36	=36	=36	=36	=36	=36	=36	=36	=36	=36	=36	=36
!	!	!LO:DY:b:rj	!	!	!LO:DY:b:rj	!	!	!	!	!	!LO:DY:b:rj
2C/	et	p	2A-\	et	p	2e-\	et	.	2a-/	et	p
4C/	glo-	.	4A-\	glo-	.	4e-\	glo-	.	4a-/	glo-	.
4C/	-ri-	.	4A-\	-ri-	.	4en\	-ri-	.	4cc\	-ri-	.
=37	=37	=37	=37	=37	=37	=37	=37	=37	=37	=37	=37
2D-X\	-o-	.	2A-\	-o-	.	2f\	-o-	.	2cc\	-o-	.
4D-\	-sam	.	4B-\	-sam	.	4f\	-sam	.	4b-\	-sam	.
4Dn\	in	.	4Bn\	in	.	4f\	in	.	4a-\	in	.
!	!	!	!LO:LB:g=original	!	!	!LO:LB:g=original	!	!	!	!	!
=38	=38	=38	=38	=38	=38	=38	=38	=38	=38	=38	=38
2.E-\	se-	.	(2c\	se-	.	2e-\	se-	.	(8b-/L	se-	.
.	.	.	.	.	.	.	.	.	8a-/	.	.
.	.	.	.	.	.	.	.	.	8g/	.	.
.	.	.	.	.	.	.	.	.	8a-/J)	.	.
.	.	.	4d-X\)	.	.	4.g\	.	.	4.cc\	.	.
4E-\	-cu-	.	4d-\	-cu-	.	.	.	.	.	.	.
.	.	.	.	.	.	8g\	-cu-	.	8b-\	-cu-	.
!	!	!	!	!	!	!	!	!	!LO:LB:g=original	!	!
=39	=39	=39	=39	=39	=39	=39	=39	=39	=39	=39	=39
4A-\	-la	.	4c\	-la	.	4e-\	-la	.	4a-/	-la	.
!	!	!LO:DY:b:rj	!	!	!	!	!	!	!	!	!
4A-\	al-	f	4r	.	.	4r	.	.	4r	.	.
4G\	-le-	.	2r	.	.	2r	.	.	2r	.	.
4F\	-lu-	.	.	.	.	.	.	.	.	.	.
=40	=40	=40	=40	=40	=40	=40	=40	=40	=40	=40	=40
!	!	!	!	!	!	!	!	!LO:DY:b	!	!	!LO:DY:b:rj
1E-	-ja	.	4r	.	.	4r	.	f	4r	.	f
!	!	!	!	!	!LO:DY:b:rj	!	!	!	!	!	!
.	.	.	4B-\	al-	f	4g\	al-	.	4dd-X\	al-	.
.	.	.	4d-X\	-le-	.	4g\	-le-	.	4ff\	-le-	.
.	.	.	4c\	-lu-	.	4a-\	-lu-	.	4ee-\	-lu-	.
=41	=41	=41	=41	=41	=41	=41	=41	=41	=41	=41	=41
1E-	al-	.	(4An\	-ja	.	4g-X\	-ja	.	4ee-\	-ja	.
.	.	.	4B-\	.	.	4f\	al-	.	4dd-X\	al-	.
.	.	.	4G\)	.	.	4f-X\	-le-	.	4dd-\	-le-	.
.	.	.	4A-X\	al-	.	4e-\	-lu-	.	4cc\	-lu-	.
=42	=42	=42	=42	=42	=42	=42	=42	=42	=42	=42	=42
2E-\	-le-	.	2F/	-le-	.	(2dn\	-ja	.	4cc\	-ja	.
.	.	.	.	.	.	.	.	.	4b-\	al-	.
2E-\	-lu-	.	2B-\	-lu-	.	2d-X\)	.	.	4f/	-le-	.
.	.	.	.	.	.	.	.	.	4g/	-lu-	.
=43	=43	=43	=43	=43	=43	=43	=43	=43	=43	=43	=43
4AA-/	-ja	.	4A-\	-ja	.	4c\	.	.	4a-/	-ja	.
4A-\	al-	.	4r	.	.	4r	.	.	4r	.	.
4G\	-le-	.	2r	.	.	2r	.	.	2r	.	.
4F\	-lu-	.	.	.	.	.	.	.	.	.	.
!	!	!	!	!	!	!LO:LB:g=original	!	!	!	!	!
=44	=44	=44	=44	=44	=44	=44	=44	=44	=44	=44	=44
1E-	-ja	.	4r	.	.	4r	.	.	4r	.	.
.	.	.	4B-\	al-	.	4g\	al-	.	4dd-X\	al-	.
.	.	.	4d-X\	-le-	.	4g\	-le-	.	4ff\	-le-	.
.	.	.	4c\	-lu-	.	4a-\	-lu-	.	4ee-\	-lu-	.
!	!	!	!LO:LB:g=original	!	!	!	!	!	!	!	!
=45	=45	=45	=45	=45	=45	=45	=45	=45	=45	=45	=45
1E-	al-	.	4An\	-ja	.	(4g-X\	-ja	.	4ee-\	-ja	.
.	.	.	(4B-\	.	.	4f\	.	.	4dd-X\	al-	.
.	.	.	4G/)	.	.	4f-X\)	.	.	4dd-\	-le-	.
.	.	.	4A-X/	al-	.	4e-\	al-	.	4cc\	-lu-	.
!	!	!	!	!	!	!	!	!	!LO:LB:g=original	!	!
=46	=46	=46	=46	=46	=46	=46	=46	=46	=46	=46	=46
2E-\	-le-	.	2F/	-le-	.	2dn\	-le-	.	4cc\	-ja	.
.	.	.	.	.	.	.	.	.	4b-\	al-	.
2E-\	-lu-	.	2B-\	-lu-	.	2d-X\	-lu-	.	4f/	-le-	.
.	.	.	.	.	.	.	.	.	4g/	-lu-	.
=47	=47	=47	=47	=47	=47	=47	=47	=47	=47	=47	=47
4AA-/	-ja	.	4A-\	-ja	.	4c\	-ja	.	4a-/	-ja	.
4A-\	al-	.	4r	.	.	4r	.	.	4r	.	.
4G\	-le-	.	2r	.	.	2r	.	.	2r	.	.
4F\	-lu-	.	.	.	.	.	.	.	.	.	.
!LO:LB:g=original	!	!	!	!	!	!	!	!	!	!	!
=48	=48	=48	=48	=48	=48	=48	=48	=48	=48	=48	=48
4E-\	-ja	.	4r	.	.	4r	.	.	4rg	.	.
4E-\	al-	.	4d-X\	al-	.	4g\	al-	.	4ee-\	al-	.
4E-\	-le-	.	4d-\	-le-	.	4g\	-le-	.	4ff\	-le-	.
4E-\	-lu-	.	4d-\	-lu-	.	4g\	-lu-	.	4ee-\	-lu-	.
=49	=49	=49	=49	=49	=49	=49	=49	=49	=49	=49	=49
!LO:TX:t=P:problem=t. 49-50 zapisane repetycją	!	!	!	!	!	!	!	!	!	!	!
4AA-/yy	-ja	.	4c\	-ja	.	4a-\	-ja	.	4ee-\	-ja	.
4A-\yy	al-	.	4r	.	.	4r	.	.	4r	.	.
4G\yy	-le-	.	2r	.	.	2r	.	.	2r	.	.
4F\yy	-lu-	.	.	.	.	.	.	.	.	.	.
!	!	!	!	!	!	!LO:LB:g=original	!	!	!	!	!
=50	=50	=50	=50	=50	=50	=50	=50	=50	=50	=50	=50
4E-\yy	-ja	.	4r	.	.	4r	.	.	4r	.	.
4E-\yy	al-	.	4d-X\	al-	.	4g\	al-	.	4ee-\	al-	.
4E-\yy	-le-	.	4d-\	-le-	.	4g\	-le-	.	4ff\	-le-	.
4E-\yy	-lu-	.	4d-\	-lu-	.	4g\	-lu-	.	4ee-\	-lu-	.
!	!	!	!LO:LB:g=original	!	!	!	!	!	!	!	!
=51	=51	=51	=51	=51	=51	=51	=51	=51	=51	=51	=51
4A-\	-ja	.	4c\	-ja	.	4a-\	-ja	.	4ee-\	-ja	.
4r	.	.	4r	.	.	4r	.	.	4r	.	.
!	!	!	!	!	!LO:DY:b:rj	!	!	!	!	!	!LO:DY:b:rj
4A-\	al-	.	4e-\	al-	p	4a-\	al-	.	4cc\	al-	p
4A-\	-le-	.	4e-\	-le-	<	4a-\	-le-	.	4cc\	-le-	.
=52	=52	=52	=52	=52	=52	=52	=52	=52	=52	=52	=52
!	!	!LO:DY:b:rj	!	!	!	!	!	!	!	!	!LO:HP:b
2A-\	-lu-	p	[1e-	-lu-	[ >	1a-	-lu-	.	[1cc	-lu-	<
2F\	.	.	.	.	.	.	.	.	.	.	.
=53	=53	=53	=53	=53	=53	=53	=53	=53	=53	=53	=53
2E-\	-ja	.	1e-]	.	]]	1a-	.	.	1cc]	.	[[
2C\	al-	.	.	.	.	.	.	.	.	.	.
!LO:LB:g=original	!	!	!	!	!	!	!	!	!LO:LB:g=original	!	!
=54	=54	=54	=54	=54	=54	=54	=54	=54	=54	=54	=54
!	!	!LO:HP:a	!	!	!	!	!	!	!	!	!
1AA-	-le lu-	<[	1c	-ja	.	[1e-	-ja	.	1a-	-lu-	.
=55	=55	=55	=55	=55	=55	=55	=55	=55	=55	=55	=55
!	!	!LO:HP:a	!	!	!	!	!	!	!	!	!LO:DY:b:rj
4AA-/	-ja	>	4c\	.	.	4e-\]	.	.	4a-/	-ja	p
4r	.	]	4r	.	.	4r	.	.	4r	.	.
2r	.	.	2r	.	.	2r	.	.	2r	.	.
!LO:PB:g=original	!	!	!LO:PB:g=original	!	!	!LO:PB:g=original	!	!	!LO:PB:g=original	!	!
==	==	==	==	==	==	==	==	==	==	==	==
*-	*-	*-	*-	*-	*-	*-	*-	*-	*-	*-	*-
!!!system-decoration: [(s1,s2,s3,s4)]
!!!ENC: Anastazja Marusiak
!!!END: 2023-10-28
!!!EED: Marta Chmielewska
!!!EEV: 2024-05-02
